scr/img/Macy's_Logo.svg

<svg width="225" height="60" viewBox="0 0 225 60" fill="none" xmlns="http://www.w3.org/2000/svg">
<path d="M25.02 0L19.1475 17.7172H0L15.4575 28.6745L9.6525 46.4801L25.02 35.5228L40.455 46.4801L34.5825 28.6745L49.95 17.7172H30.8925L25.02 0Z" fill="#E22130"/>
<path d="M103.68 16.1488C102.51 15 101.25 14.1606 99.6524 13.6746C98.1449 13.1002 96.3674 12.8572 94.4549 12.8572C92.5199 12.8572 90.7649 13.1885 88.9874 13.9397C87.2324 14.6908 85.7924 15.7511 84.6224 16.8999L84.5324 16.9883C83.9474 17.651 83.4299 18.3137 83.0249 19.0427C82.6874 19.7055 82.3499 20.2799 82.1924 20.7659C82.0349 20.4345 81.7649 19.8601 81.4274 19.2857C80.8424 18.2033 80.3249 17.3859 79.9199 17.0545C78.7499 15.729 77.3999 14.8233 75.6449 14.0943C73.8899 13.3432 72.0449 13.0118 69.9299 13.0118C68.5799 13.0118 66.6449 13.1665 64.5524 14.1606C62.1224 15.3093 60.0974 17.1208 58.6799 19.7718V13.8513H56.7449V46.8999H58.6799V28.1002C58.6799 25.9573 58.9274 24.1458 59.4449 22.489C59.9399 20.8321 60.7049 19.595 61.7174 18.3579C62.5499 17.2092 63.8099 16.3034 65.2499 15.729C66.6674 15.0663 68.1974 14.7349 69.7724 14.8233C71.7074 14.9117 73.3724 15.243 74.9024 15.9058C76.3199 16.5685 77.5124 17.5626 78.5024 18.7114C79.3349 19.8601 79.9199 20.8542 80.2574 22.003C80.7524 23.3947 80.9324 25.0516 80.9324 27.3712V46.8336H82.8674V28.2106C82.8674 25.9131 82.9574 24.0133 83.3624 22.4448C83.7899 20.9647 84.3749 19.8159 85.5449 18.3137C86.5574 16.9883 87.8174 16.0825 89.5724 15.4198C90.9899 14.9338 92.5874 14.6024 94.0949 14.6024C95.7824 14.6024 97.1999 14.8454 98.5499 15.3535C99.8999 15.8616 100.89 16.5906 101.835 17.4964C103.005 18.6451 103.86 20.0589 104.355 21.8704C104.94 23.6819 105.187 25.7364 105.187 28.299V46.8336H107.122L107.46 28.2106C107.46 25.4934 107.122 23.1075 106.447 21.1193C105.862 19.1311 105.007 17.3859 103.68 16.1488Z" fill="#231F20"/>
<path d="M141.862 22.2461C140.85 19.9486 138.915 17.629 136.395 15.9722C133.447 13.984 129.937 13.012 126.247 13.012C119.542 13.012 115.425 15.9722 113.062 18.5348C110.205 21.6718 108.54 25.9575 108.54 30.3315C108.54 34.7056 110.227 38.9913 113.062 42.1283C115.335 44.6025 119.52 47.6511 126.247 47.6511C129.69 47.6511 132.795 46.8338 135.562 45.2653C138.172 43.6084 140.265 41.4656 141.862 38.5937V46.9221H143.797V13.9398H141.862V22.2461ZM140.782 24.146C141.12 25.0517 141.457 25.9575 141.615 26.8632C141.862 27.8573 141.952 28.9177 141.952 29.8234C142.042 30.9059 141.952 31.8779 141.795 32.7837C141.637 33.8662 141.367 34.7719 141.03 35.5893C139.927 38.6379 138.015 41.2667 135.405 43.012C132.885 44.8234 129.69 45.7292 126.427 45.7292C121.567 45.7292 117.54 44.0061 114.592 40.8691C112.072 38.0635 110.475 34.1975 110.475 30.1548C110.475 25.7807 112.162 21.9148 114.997 19.0208C117.945 16.2152 121.882 14.5804 126.247 14.5804C129.442 14.5804 132.547 15.4862 135.067 17.0547C137.677 18.9545 139.68 21.3404 140.782 24.146Z" fill="#231F20"/>
<path d="M151.2 18.866C152.955 17.2975 154.732 16.3034 156.487 15.5744C158.242 14.9117 160.177 14.4919 162.54 14.4919H162.697C165.555 14.4919 168.48 15.3093 170.932 16.7231C173.79 18.5346 175.972 21.0089 177.142 24.1458L177.232 24.3005H179.415L179.257 23.9691C177.907 20.2578 175.387 17.2092 172.035 15.243C169.267 13.5862 165.915 12.7688 162.63 12.7688C157.77 12.7688 153.315 14.5803 150.03 17.8056C146.745 21.0309 144.9 25.4713 144.9 30.243C144.9 34.6834 146.655 38.9691 149.512 42.1061C152.797 45.6407 157.41 47.5405 162.945 47.5405C166.545 47.5405 170.077 46.458 172.935 44.4919C175.792 42.5258 177.975 39.7865 179.235 36.4949L179.392 36.1635H177.21L177.12 36.3181C176.287 38.704 174.51 41.0236 172.17 42.6583C169.492 44.7128 166.05 45.7069 162.517 45.7069C160.425 45.7069 158.4 45.2872 156.465 44.5582C154.53 43.7408 152.932 42.6583 151.425 41.3329C149.917 39.8527 148.815 38.1959 147.982 36.2298C147.15 34.3299 146.722 32.1871 146.722 30.0442C146.722 27.9013 147.217 25.6701 147.982 23.704C148.68 21.8483 149.85 20.1915 151.2 18.866ZM173.857 18.7114C175.365 20.1031 176.625 21.9367 177.457 24.0795C176.625 22.003 175.365 20.2798 173.857 18.7114Z" fill="#231F20"/>
<path d="M206.595 13.7629H204.412L204.322 13.9176C204.322 14.0722 201.037 21.5833 197.775 29.1606L191.317 44.0722L185.197 29.1606C181.26 19.2637 178.987 13.9839 178.987 13.9176L178.897 13.7629H176.715L190.147 46.6569L184.095 60H186.277L186.367 59.8454C186.367 59.8454 186.525 59.4257 186.795 58.7629C187.807 56.4654 190.575 50.1031 193.77 42.9456C194.602 41.0457 195.457 39.0796 196.38 37.0914L204.277 19.1974C205.627 16.1488 206.46 14.1606 206.46 14.0943L206.595 13.7629Z" fill="#231F20"/>
<path d="M221.715 30.8174C219.87 29.492 217.597 28.8292 215.325 28.3432L215.077 28.2548C212.467 27.5037 210.802 26.7747 209.7 25.9574C208.44 24.8749 207.765 23.5715 207.675 21.5833C207.675 20.6775 207.765 19.7718 208.102 19.0207C208.35 18.2033 208.867 17.5406 209.452 16.8778C210.127 16.1267 210.96 15.6407 211.792 15.221C212.805 14.8012 213.817 14.6466 214.897 14.6466H215.055C216.067 14.6466 216.99 14.8012 217.732 15.1326C218.565 15.464 219.33 15.95 219.915 16.5244C220.5 17.0987 221.017 17.8498 221.332 18.6672C221.67 19.4846 221.827 20.3903 221.827 21.3845V21.6275H223.762V21.4286C223.762 19.0428 222.84 16.8999 221.332 15.3314C219.735 13.7629 217.552 13.0339 214.875 13.0339C212.535 13.0339 210.262 13.785 208.575 15.0884C206.64 16.6569 205.717 18.8881 205.717 21.6054C205.807 24.168 206.73 26.0457 208.395 27.4596C210.15 28.8513 212.512 29.6024 214.852 30.1768C217.71 30.8395 219.712 31.7453 220.972 32.894C222.322 34.2195 222.907 35.788 222.997 37.9971V38.2401C222.997 39.3226 222.84 40.383 222.412 41.2004C221.985 42.1061 221.49 42.9235 220.725 43.5862C220.05 44.3373 219.127 44.9117 218.205 45.3093C217.192 45.7291 216.112 45.8837 215.01 45.8837C212.58 45.8837 210.397 45.1326 208.89 43.7409C207.382 42.2607 206.617 40.2725 206.55 37.8867V37.6437L204.615 37.732V38.1518C204.615 38.2401 204.615 38.3064 204.615 38.3948C204.615 39.5435 204.862 40.626 205.29 41.6864C205.717 42.7688 206.302 43.7409 207.135 44.492C208.147 45.4861 209.317 46.3034 210.667 46.7895C212.017 47.2755 213.435 47.6068 215.032 47.6068C216.45 47.6068 217.8 47.2755 219.06 46.7895C220.32 46.2151 221.4 45.464 222.345 44.5582C223.177 43.6525 223.942 42.57 224.37 41.4213C224.865 40.2725 225.045 39.0354 224.955 37.7099C224.82 34.5288 223.717 32.3196 221.715 30.8174Z" fill="#231F20"/>
<path d="M205.492 11.2887L207.765 9.72025L210.037 11.2887L209.115 8.65987L211.455 7.00302H208.687L207.765 4.44043L206.932 7.00302H204.165L206.347 8.65987L205.492 11.2887Z" fill="#231F20"/>
</svg>

<svg width="225" height="60" fill="none" xmlns="http://www.w3.org/2000/svg"><path d="M25.02 0l-5.872 17.717H0l15.457 10.957L9.652 46.48 25.02 35.523 40.455 46.48l-5.872-17.805L49.95 17.716H30.892L25.02 0z" fill="#E22130"/><path d="M103.68 16.149c-1.17-1.149-2.43-1.988-4.028-2.474-1.507-.575-3.285-.818-5.197-.818-1.935 0-3.69.332-5.468 1.083-1.755.75-3.195 1.811-4.365 2.96l-.09.088c-.585.663-1.102 1.326-1.507 2.055-.338.663-.675 1.237-.833 1.723-.157-.331-.427-.906-.765-1.48-.585-1.083-1.102-1.9-1.507-2.232-1.17-1.325-2.52-2.23-4.275-2.96-1.755-.75-3.6-1.082-5.715-1.082-1.35 0-3.285.154-5.378 1.149-2.43 1.148-4.455 2.96-5.872 5.61v-5.92h-1.935V46.9h1.935V28.1c0-2.143.247-3.954.765-5.611.495-1.657 1.26-2.894 2.272-4.131.833-1.149 2.093-2.055 3.533-2.629 1.417-.663 2.947-.994 4.522-.906 1.935.089 3.6.42 5.13 1.083 1.418.662 2.61 1.657 3.6 2.805.833 1.15 1.418 2.143 1.755 3.292.495 1.392.675 3.049.675 5.368v19.463h1.935V28.21c0-2.298.09-4.198.495-5.766.428-1.48 1.013-2.63 2.183-4.131 1.012-1.326 2.272-2.232 4.027-2.894 1.418-.486 3.015-.818 4.523-.818 1.687 0 3.105.243 4.455.752 1.35.508 2.34 1.237 3.285 2.142 1.17 1.15 2.025 2.563 2.52 4.374.585 1.812.832 3.866.832 6.429v18.535h1.935l.338-18.623c0-2.718-.338-5.103-1.013-7.092-.585-1.988-1.44-3.733-2.767-4.97zm38.182 6.097c-1.012-2.297-2.947-4.617-5.467-6.274-2.948-1.988-6.458-2.96-10.148-2.96-6.705 0-10.822 2.96-13.185 5.523-2.857 3.137-4.522 7.422-4.522 11.796 0 4.375 1.687 8.66 4.522 11.797 2.273 2.474 6.458 5.523 13.185 5.523 3.443 0 6.548-.817 9.315-2.386 2.61-1.657 4.703-3.8 6.3-6.671v8.328h1.935V13.94h-1.935v8.306zm-1.08 1.9c.338.906.675 1.811.833 2.717.247.994.337 2.055.337 2.96.09 1.083 0 2.055-.157 2.96a11.64 11.64 0 01-.765 2.806c-1.103 3.049-3.015 5.678-5.625 7.423-2.52 1.811-5.715 2.717-8.978 2.717-4.86 0-8.887-1.723-11.835-4.86-2.52-2.806-4.117-6.672-4.117-10.714 0-4.374 1.687-8.24 4.522-11.134 2.948-2.806 6.885-4.44 11.25-4.44 3.195 0 6.3.905 8.82 2.474 2.61 1.9 4.613 4.285 5.715 7.091zm10.418-5.28c1.755-1.569 3.532-2.563 5.287-3.292 1.755-.662 3.69-1.082 6.053-1.082h.157c2.858 0 5.783.817 8.235 2.231 2.858 1.812 5.04 4.286 6.21 7.423l.09.154h2.183l-.158-.33c-1.35-3.712-3.87-6.76-7.222-8.727-2.768-1.657-6.12-2.474-9.405-2.474-4.86 0-9.315 1.811-12.6 5.037-3.285 3.225-5.13 7.665-5.13 12.437 0 4.44 1.755 8.726 4.612 11.863 3.285 3.535 7.898 5.434 13.433 5.434 3.6 0 7.132-1.082 9.99-3.048a17.04 17.04 0 006.3-7.997l.157-.331h-2.182l-.09.154c-.833 2.386-2.61 4.706-4.95 6.34-2.678 2.055-6.12 3.049-9.653 3.049-2.092 0-4.117-.42-6.052-1.149-1.935-.817-3.533-1.9-5.04-3.225-1.508-1.48-2.61-3.137-3.443-5.103-.832-1.9-1.26-4.043-1.26-6.186s.495-4.374 1.26-6.34c.698-1.856 1.868-3.512 3.218-4.838zm22.657-.155c1.508 1.392 2.768 3.226 3.6 5.369-.832-2.077-2.092-3.8-3.6-5.369z" fill="#231F20"/><path d="M206.595 13.763h-2.183l-.09.155c0 .154-3.285 7.665-6.547 15.243l-6.458 14.911-6.12-14.911c-3.937-9.897-6.21-15.177-6.21-15.243l-.09-.155h-2.182l13.432 32.894L184.095 60h2.182l.09-.155s.158-.42.428-1.082c1.012-2.298 3.78-8.66 6.975-15.817.832-1.9 1.687-3.866 2.61-5.855l7.897-17.894c1.35-3.048 2.183-5.036 2.183-5.103l.135-.331zm15.12 17.054c-1.845-1.325-4.118-1.988-6.39-2.474l-.248-.088c-2.61-.751-4.275-1.48-5.377-2.298-1.26-1.082-1.935-2.386-2.025-4.374 0-.905.09-1.811.427-2.562.248-.818.765-1.48 1.35-2.143.675-.751 1.508-1.237 2.34-1.657 1.013-.42 2.025-.574 3.105-.574h.158c1.012 0 1.935.154 2.677.486.833.331 1.598.817 2.183 1.391a6.188 6.188 0 011.417 2.143c.338.818.495 1.723.495 2.717v.244h1.935v-.2c0-2.385-.922-4.528-2.43-6.097-1.597-1.568-3.78-2.297-6.457-2.297-2.34 0-4.613.751-6.3 2.054-1.935 1.569-2.858 3.8-2.858 6.517.09 2.563 1.013 4.44 2.678 5.855 1.755 1.391 4.117 2.142 6.457 2.717 2.858.663 4.86 1.568 6.12 2.717 1.35 1.325 1.935 2.894 2.025 5.103v.243c0 1.083-.157 2.143-.585 2.96-.427.906-.922 1.723-1.687 2.386-.675.751-1.598 1.326-2.52 1.723-1.013.42-2.093.575-3.195.575-2.43 0-4.613-.751-6.12-2.143-1.508-1.48-2.273-3.468-2.34-5.854v-.243l-1.935.088v.663c0 1.148.247 2.231.675 3.291.427 1.083 1.012 2.055 1.845 2.806 1.012.994 2.182 1.811 3.532 2.297 1.35.486 2.768.818 4.365.818 1.418 0 2.768-.331 4.028-.818a11.734 11.734 0 003.285-2.23c.832-.906 1.597-1.989 2.025-3.138.495-1.148.675-2.386.585-3.711-.135-3.181-1.238-5.39-3.24-6.893zm-16.223-19.528l2.273-1.569 2.272 1.569-.922-2.63 2.34-1.656h-2.768l-.922-2.563-.833 2.563h-2.767l2.182 1.657-.855 2.629z" fill="#231F20"/></svg>
